public/icons/instagram.svg

<svg width="41" height="41" viewBox="0 0 41 41" fill="none" xmlns="http://www.w3.org/2000/svg">
<path d="M29.5936 9.31815C29.1885 9.31815 28.7926 9.43827 28.4558 9.6633C28.119 9.88834 27.8565 10.2082 27.7015 10.5824C27.5465 10.9566 27.5059 11.3684 27.5849 11.7657C27.664 12.163 27.859 12.5279 28.1454 12.8143C28.4319 13.1007 28.7968 13.2958 29.1941 13.3748C29.5913 13.4538 30.0031 13.4133 30.3773 13.2583C30.7516 13.1032 31.0714 12.8408 31.2964 12.504C31.5215 12.1672 31.6416 11.7712 31.6416 11.3662C31.6416 10.823 31.4258 10.3021 31.0418 9.918C30.6577 9.53392 30.1368 9.31815 29.5936 9.31815ZM37.4443 13.4483C37.4111 12.0323 37.1459 10.6313 36.6592 9.30109C36.2252 8.16297 35.5498 7.13239 34.6795 6.28029C33.8344 5.40549 32.8014 4.73435 31.6587 4.31762C30.332 3.81613 28.9294 3.54486 27.5115 3.51549C25.7024 3.41309 25.1221 3.41309 20.48 3.41309C15.8379 3.41309 15.2576 3.41309 13.4485 3.51549C12.0305 3.54486 10.628 3.81613 9.30133 4.31762C8.16072 4.73857 7.12863 5.40914 6.28053 6.28029C5.40574 7.12539 4.73459 8.15837 4.31786 9.30109C3.81638 10.6278 3.5451 12.0303 3.51573 13.4483C3.41333 15.2574 3.41333 15.8376 3.41333 20.4798C3.41333 25.1219 3.41333 25.7022 3.51573 27.5112C3.5451 28.9292 3.81638 30.3318 4.31786 31.6584C4.73459 32.8011 5.40574 33.8341 6.28053 34.6792C7.12863 35.5504 8.16072 36.2209 9.30133 36.6419C10.628 37.1434 12.0305 37.4146 13.4485 37.444C15.2576 37.5464 15.8379 37.5464 20.48 37.5464C25.1221 37.5464 25.7024 37.5464 27.5115 37.444C28.9294 37.4146 30.332 37.1434 31.6587 36.6419C32.8014 36.2252 33.8344 35.554 34.6795 34.6792C35.5537 33.8303 36.2297 32.7988 36.6592 31.6584C37.1459 30.3282 37.4111 28.9272 37.4443 27.5112C37.4443 25.7022 37.5467 25.1219 37.5467 20.4798C37.5467 15.8376 37.5467 15.2574 37.4443 13.4483ZM34.3723 27.3064C34.3598 28.3898 34.1636 29.4631 33.792 30.4808C33.5195 31.2235 33.0818 31.8947 32.512 32.4435C31.9584 33.0075 31.2887 33.4443 30.5493 33.7235C29.5316 34.0951 28.4583 34.2913 27.3749 34.3038C25.6683 34.3891 25.0368 34.4062 20.5483 34.4062C16.0597 34.4062 15.4283 34.4062 13.7216 34.3038C12.5967 34.3248 11.4766 34.1516 10.4107 33.7917C9.70373 33.4983 9.06471 33.0626 8.53333 32.5117C7.96687 31.9635 7.53466 31.2918 7.2704 30.5491C6.85372 29.5168 6.62262 28.4191 6.58773 27.3064C6.58773 25.5998 6.48533 24.9683 6.48533 20.4798C6.48533 15.9912 6.48533 15.3598 6.58773 13.6531C6.59538 12.5456 6.79756 11.448 7.18506 10.4104C7.48552 9.69005 7.94669 9.04792 8.53333 8.53309C9.05184 7.94628 9.69265 7.48024 10.4107 7.16775C11.451 6.79236 12.5474 6.59615 13.6533 6.58749C15.36 6.58749 15.9915 6.48509 20.48 6.48509C24.9685 6.48509 25.6 6.48509 27.3067 6.58749C28.39 6.59991 29.4634 6.79612 30.4811 7.16775C31.2566 7.45559 31.9527 7.92354 32.512 8.53309C33.0713 9.05734 33.5083 9.69828 33.792 10.4104C34.1713 11.4497 34.3676 12.5468 34.3723 13.6531C34.4576 15.3598 34.4747 15.9912 34.4747 20.4798C34.4747 24.9683 34.4576 25.5998 34.3723 27.3064ZM20.48 11.7246C18.7491 11.7279 17.0581 12.2443 15.6205 13.2084C14.183 14.1724 13.0635 15.541 12.4034 17.1411C11.7434 18.7412 11.5724 20.501 11.9122 22.1982C12.2519 23.8955 13.0871 25.4539 14.3122 26.6766C15.5373 27.8994 17.0974 28.7315 18.7953 29.068C20.4932 29.4044 22.2527 29.23 23.8515 28.5669C25.4503 27.9037 26.8166 26.7815 27.7779 25.3421C28.7392 23.9027 29.2523 22.2106 29.2523 20.4798C29.2545 19.3279 29.029 18.187 28.5888 17.1227C28.1485 16.0583 27.5022 15.0915 26.6869 14.2778C25.8717 13.4641 24.9036 12.8197 23.8384 12.3815C22.7732 11.9433 21.6318 11.7201 20.48 11.7246ZM20.48 26.163C19.356 26.163 18.2572 25.8296 17.3226 25.2052C16.388 24.5807 15.6596 23.6931 15.2294 22.6546C14.7993 21.6161 14.6867 20.4734 14.906 19.371C15.1253 18.2686 15.6666 17.2559 16.4614 16.4611C17.2562 15.6663 18.2688 15.125 19.3713 14.9058C20.4737 14.6865 21.6164 14.799 22.6549 15.2292C23.6933 15.6593 24.5809 16.3877 25.2054 17.3223C25.8299 18.2569 26.1632 19.3557 26.1632 20.4798C26.1632 21.2261 26.0162 21.9651 25.7306 22.6546C25.445 23.3441 25.0264 23.9706 24.4986 24.4984C23.9709 25.0261 23.3444 25.4447 22.6549 25.7303C21.9653 26.016 21.2263 26.163 20.48 26.163Z" fill="#1E1E1E"/>
</svg>

<svg xmlns="http://www.w3.org/2000/svg" width="41" height="41" fill="none" viewBox="0 0 41 41"><path fill="#1e1e1e" d="M29.594 9.318a2.048 2.048 0 1 0 0 4.096 2.048 2.048 0 0 0 0-4.096m7.85 4.13a13 13 0 0 0-.785-4.147 8.4 8.4 0 0 0-1.98-3.02 8 8 0 0 0-3.02-1.963 12.5 12.5 0 0 0-4.147-.803c-1.81-.102-2.39-.102-7.032-.102s-5.222 0-7.032.102c-1.418.03-2.82.301-4.147.803a8.16 8.16 0 0 0-3.02 1.962 8 8 0 0 0-1.963 3.021 12.5 12.5 0 0 0-.802 4.147c-.103 1.81-.103 2.39-.103 7.032s0 5.222.103 7.031c.03 1.418.3 2.82.802 4.147A8 8 0 0 0 6.28 34.68a8.16 8.16 0 0 0 3.02 1.963c1.327.501 2.73.773 4.147.802 1.81.102 2.39.102 7.032.102s5.222 0 7.032-.102c1.417-.03 2.82-.3 4.147-.802a8 8 0 0 0 3.02-1.963 8.3 8.3 0 0 0 1.98-3.02c.487-1.33.752-2.732.785-4.148 0-1.809.103-2.39.103-7.031 0-4.642 0-5.223-.103-7.032m-3.072 13.858a9.6 9.6 0 0 1-.58 3.175 5.2 5.2 0 0 1-1.28 1.962c-.554.565-1.223 1.001-1.963 1.28a9.6 9.6 0 0 1-3.174.58c-1.707.086-2.338.103-6.827.103s-5.12 0-6.826-.102a9.8 9.8 0 0 1-3.311-.512 5.6 5.6 0 0 1-1.878-1.28 5.1 5.1 0 0 1-1.263-1.963 9.5 9.5 0 0 1-.682-3.243c0-1.706-.103-2.338-.103-6.826 0-4.489 0-5.12.103-6.827a9.5 9.5 0 0 1 .597-3.243 5.1 5.1 0 0 1 1.348-1.877 5.4 5.4 0 0 1 1.878-1.365 9.8 9.8 0 0 1 3.242-.58c1.707 0 2.339-.103 6.827-.103s5.12 0 6.827.102a9.6 9.6 0 0 1 3.174.58 5.2 5.2 0 0 1 2.031 1.366c.56.524.996 1.165 1.28 1.877.38 1.04.576 2.137.58 3.243.086 1.707.103 2.338.103 6.827s-.017 5.12-.103 6.826M20.48 11.725a8.755 8.755 0 1 0 8.772 8.755 8.74 8.74 0 0 0-8.772-8.755m0 14.438a5.684 5.684 0 1 1 0-11.368 5.684 5.684 0 0 1 0 11.368"/></svg>
